X:1
T:Doamne ocroteste-i pe romani
T:Doamne ocroteste-i pe romani
T:Sava Negrean Brudașcu
T:Săracă țară bogată,                                             Transilvania mea sfîntă, Mult ai trăit supărată.                                         De mulți ai fost tu dorită, Doamne ocrotește-i pe români.                          Doamne ocrotește-i pe români. Ne-a umplut amarul crud,                                  Dar e-al nostru Ardeal sfânt, Plânsul nostru-i tot mai surd,                              De când suntem pe pământ, Doamne ocrotește-i pe romani.                          Doamne ocrotește-i pe români. 
L:1/8
M:6/8
K:G
V:1 treble+8 nm="Recorder" snm="Rec."
V:1
"^A" E2 G F2 E | B2 B B2 E | E2 G F2 E | E2 D D3 | G2 G G2 G | A2 A d2 c | (B6 | B3 B2) B |: %8
w: Doam- ne, nu ui-|ta de noi, Sun-|tem să- raci, Plini|de ne- voi,|Doam- ne o- cro-|teș- te\-i pe Ro-|mâni,|_ _ Sun-|
 B2 d c2 B | B2 A A3 | B2 c B2 A | G2 F E2 D | B2 B B2 G |1 A2 A [Ad]2 [Ac] | (B6 | B3 B2) B :| %16
w: tem să- raci, plini|de a- mar|Plân- sul nos- tru\-i|în za- dar, _|Doam- ne, o- cro-|teș- te\-i pe ro-|mâni.|_ _ Sun|
 A2 A G2 F | E6 | E4 z2 ||[K:F]"^B" D2 F E2 D | A2 A A2 D | D2 F E2 D | D2 C C3 | F2 F F2 F | %24
w: teș- te\-i pe ro-|mâni.|_|Doam- ne, nu ui-|ta de noi, Sun-|tem să- raci, Plini|de ne- voi,|Doam- ne o- cro-|
 G2 G c2 B | (A6 | A3 A2) A |: A2 c B2 A | A2 G G3 | A2 B A2 G | F2 E D2 C | A2 A A2 F |1 %32
w: teș- te\-i pe Ro-|mâni,|_ _ Sun-|tem să- raci, plini|de a- mar|Plân- sul nos- tru\-i|în za- dar, _|Doam- ne, o- cro-|
 G2 G [Gc]2 [GB] | (A6 | A3 A2) A :|2 G2 G F2 E | D6 | D4 z2 ||[K:C]"^C" A2 c B2 A | e2 e e2 A | %40
w: teș- te\-i pe ro-|mâni.|_ _ Sun|teș- te\-i pe ro-|mâni.|_|Doam- ne, nu ui-|ta de noi, Sun-|
 A2 c B2 A | A2 G G3 | c2 c c2 c | d2 d g2 f | (e6 | e3 e2) e |: e2 g f2 e | e2 d d3 | e2 f e2 d | %49
w: tem să- raci, Plini|de ne- voi,|Doam- ne o- cro-|teș- te\-i pe Ro-|mâni,|_ _ Sun-|tem să- raci, plini|de a- mar|Plân- sul nos- tru\-i|
 c2 B A2 G | e2 e e2 c |1 d2 d [dg]2 [df] | (e6 | e3 e2) e :|2 d2 d c2 B | A6 | A4 z2 |] %57
w: în za- dar, _|Doam- ne, o- cro-|teș- te\-i pe ro-|mâni.|_ _ Sun|teș- te\-i pe ro-|mâni.|_|

